projects/packages/jetpack-mu-wpcom/src/features/wpcom-global-styles/image.svg

<svg fill="none" height="246" viewBox="0 0 318 246" width="318" xmlns="http://www.w3.org/2000/svg"><rect fill="#fff" height="71.208" rx=".944" width="183.5" x=".5" y=".187988"/><path d="m59.1791 48.292h3.1363l2.4061-6.8532h9.5248l2.4061 6.8532h3.1362l-8.8279-23.9448h-2.9537zm10.172-20.0784h.2655l3.7502 10.6863h-7.7659zm19.0165 20.3937c2.406 0 4.2811-1.0454 5.4095-2.9537h.2655v2.6384h2.8873v-12.2462c0-3.717-2.4393-5.9572-6.8034-5.9572-3.8166 0-6.5379 1.8917-7.0026 4.6961l-.0166.0995h2.8873l.0166-.0497c.4647-1.3939 1.8751-2.1904 4.0157-2.1904 2.6716 0 4.0157 1.1947 4.0157 3.4017v1.6262l-5.1275.3153c-4.165.2489-6.5213 2.0908-6.5213 5.2768v.0332c0 3.2523 2.572 5.31 5.9738 5.31zm-3.0201-5.3764v-.0332c0-1.7755 1.1947-2.738 3.9161-2.9039l4.779-.2987v1.6262c0 2.5554-2.1406 4.4803-5.0777 4.4803-2.0742 0-3.6174-1.062-3.6174-2.8707z" fill="#1e1e1e"/><circle cx="118.914" cy="24.464" fill="#264447" r="7.552"/><circle cx="118.914" cy="24.464" r="7.316" stroke="#000" stroke-opacity=".3" stroke-width=".472"/><circle cx="118.914" cy="47.12" fill="#fae3ca" r="7.552"/><circle cx="118.914" cy="47.12" r="7.316" stroke="#000" stroke-opacity=".3" stroke-width=".472"/><rect fill="#fae3ca" height="71.208" rx=".944" width="183.5" x="200" y=".187988"/><path d="m258.679 48.292h3.136l2.406-6.8532h9.525l2.406 6.8532h3.137l-8.828-23.9448h-2.954zm10.172-20.0784h.266l3.75 10.6863h-7.766zm19.017 20.3937c2.406 0 4.281-1.0454 5.409-2.9537h.266v2.6384h2.887v-12.2462c0-3.717-2.439-5.9572-6.804-5.9572-3.816 0-6.537 1.8917-7.002 4.6961l-.017.0995h2.888l.016-.0497c.465-1.3939 1.875-2.1904 4.016-2.1904 2.672 0 4.016 1.1947 4.016 3.4017v1.6262l-5.128.3153c-4.165.2489-6.521 2.0908-6.521 5.2768v.0332c0 3.2523 2.572 5.31 5.974 5.31zm-3.021-5.3764v-.0332c0-1.7755 1.195-2.738 3.917-2.9039l4.779-.2987v1.6262c0 2.5554-2.141 4.4803-5.078 4.4803-2.074 0-3.618-1.062-3.618-2.8707z" fill="#1e1e1e"/><circle cx="318.414" cy="24.464" fill="#264447" r="7.552"/><circle cx="318.414" cy="24.464" r="7.316" stroke="#000" stroke-opacity=".3" stroke-width=".472"/><circle cx="318.414" cy="47.12" fill="#ffc78a" r="7.552"/><circle cx="318.414" cy="47.12" r="7.316" stroke="#000" stroke-opacity=".3" stroke-width=".472"/><rect fill="#000" height="71.208" rx=".944" width="183.5" x=".5" y="87.396"/><path d="m82.6139 134.5h-9.8069v-1.178c.8629-.055 1.5764-.166 2.1406-.332.5752-.166.8629-.371.8629-.614 0-.1-.0111-.221-.0332-.365-.0222-.144-.0553-.271-.0996-.382l-1.9581-5.277h-8.247c-.3098.775-.5642 1.45-.7634 2.025-.188.575-.3595 1.106-.5144 1.593-.1438.476-.2433.863-.2987 1.161-.0553.299-.0829.543-.0829.731 0 .442.3484.785 1.0454 1.028.6969.244 1.4824.388 2.3563.432v1.178h-8.8611v-1.178c.2877-.022.6472-.083 1.0786-.183.4315-.11.7855-.254 1.062-.431.4425-.299.7855-.609 1.0288-.929.2434-.332.4813-.786.7136-1.361 1.1837-2.954 2.489-6.273 3.9161-9.956 1.4271-3.684 2.6992-6.964 3.8166-9.84h1.3275l7.8488 20.31c.1659.432.354.78.5642 1.046.2102.265.5033.525.8795.78.2544.155.5863.287.9956.398.4093.099.7522.155 1.0288.166zm-9.4916-9.624-3.5677-9.127-3.5013 9.127zm25.405 9.325c-.5199.188-.979.338-1.3773.448-.3872.122-.8297.183-1.3275.183-.8628 0-1.5543-.199-2.0742-.598-.5089-.409-.8352-1.001-.979-1.775h-.0996c-.719.796-1.4934 1.405-2.3231 1.825-.8186.421-1.8087.631-2.9703.631-1.2279 0-2.2401-.376-3.0366-1.129-.7855-.752-1.1782-1.736-1.1782-2.953 0-.631.0885-1.195.2655-1.693s.4425-.946.7965-1.344c.2766-.332.6416-.625 1.0952-.879.4535-.266.8795-.476 1.2777-.631.4978-.188 1.5045-.536 3.0201-1.045 1.5266-.509 2.5554-.907 3.0864-1.195v-1.643c0-.144-.0332-.42-.0996-.83-.0553-.409-.1825-.796-.3816-1.161-.2213-.409-.5365-.763-.9459-1.062-.3982-.31-.9679-.465-1.7091-.465-.5089 0-.9846.089-1.4271.266-.4314.166-.7356.343-.9126.531 0 .221.0497.547.1493.979.1106.431.1659.829.1659 1.195 0 .387-.177.741-.531 1.062-.3429.32-.8241.481-1.4436.481-.5531 0-.9624-.194-1.2279-.581-.2545-.398-.3817-.841-.3817-1.328 0-.508.177-.995.531-1.46.3651-.464.8352-.879 1.4105-1.244.4978-.31 1.1007-.57 1.8087-.78.708-.221 1.3994-.332 2.0742-.332.9293 0 1.7368.066 2.4227.199.6969.122 1.3275.393 1.8917.813.5642.409.9901.968 1.2777 1.676.2987.697.448 1.599.448 2.705 0 1.582-.0166 2.987-.0498 4.215-.0331 1.217-.0497 2.55-.0497 3.999 0 .431.0719.774.2157 1.029.1549.254.3872.47.6969.647.166.099.4259.155.7799.166.3651.011.7357.016 1.1118.016zm-5.7912-8.761c-.9403.276-1.7645.547-2.4725.813-.708.265-1.3662.597-1.9746.996-.5532.376-.9901.824-1.3109 1.344-.3209.508-.4813 1.117-.4813 1.825 0 .918.2379 1.593.7136 2.024.4867.432 1.1007.648 1.8419.648.7854 0 1.4768-.189 2.0742-.565.5974-.387 1.1007-.84 1.51-1.36z" fill="#fff"/><circle cx="117.914" cy="111.672" fill="#fff" r="7.552"/><circle cx="117.914" cy="111.672" r="7.316" stroke="#000" stroke-opacity=".3" stroke-width=".472"/><circle cx="117.914" cy="134.328" fill="#68e58b" r="7.552"/><circle cx="117.914" cy="134.328" r="7.316" stroke="#000" stroke-opacity=".3" stroke-width=".472"/><rect fill="#424cbf" height="71.208" rx=".944" width="183.5" x="200" y="87.396"/><path d="m258.679 135.5h3.136l2.406-6.853h9.525l2.406 6.853h3.137l-8.828-23.945h-2.954zm10.172-20.078h.266l3.75 10.686h-7.766zm19.017 20.393c2.406 0 4.281-1.045 5.409-2.953h.266v2.638h2.887v-12.246c0-3.717-2.439-5.957-6.804-5.957-3.816 0-6.537 1.891-7.002 4.696l-.017.099h2.888l.016-.05c.465-1.393 1.875-2.19 4.016-2.19 2.672 0 4.016 1.195 4.016 3.402v1.626l-5.128.315c-4.165.249-6.521 2.091-6.521 5.277v.033c0 3.253 2.572 5.31 5.974 5.31zm-3.021-5.376v-.033c0-1.776 1.195-2.738 3.917-2.904l4.779-.299v1.626c0 2.556-2.141 4.481-5.078 4.481-2.074 0-3.618-1.062-3.618-2.871z" fill="#fff"/><circle cx="318.414" cy="111.672" fill="#fff" r="7.552"/><circle cx="318.414" cy="111.672" r="7.316" stroke="#000" stroke-opacity=".3" stroke-width=".472"/><circle cx="318.414" cy="134.328" fill="#1de7f4" r="7.552"/><circle cx="318.414" cy="134.328" r="7.316" stroke="#000" stroke-opacity=".3" stroke-width=".472"/><rect fill="#64589e" height="71.208" rx=".944" width="183.5" x=".5" y="174.604"/><path d="m74.2275 222.708h3.0864l-7.7161-23.945h-3.1196l-7.7161 23.945h2.9703l2.0908-6.87h8.3301zm-6.2724-20.427h.0829l3.352 11.052h-6.8035zm19.2653 20.742c2.6218 0 4.5799-1.078 5.4427-3.003h.2821v2.705h2.6882v-12.33c0-3.75-2.4227-5.907-6.6541-5.907-3.6838 0-6.4715 1.975-6.8034 4.862h2.7712c.4646-1.543 1.9248-2.423 3.999-2.423 2.5057 0 3.883 1.245 3.883 3.502v1.626l-4.945.249c-4.0986.215-6.3885 2.107-6.3885 5.293 0 3.269 2.2899 5.426 5.7248 5.426zm.8131-2.472c-2.2734 0-3.6838-1.162-3.6838-3.053 0-1.876 1.3275-2.954 3.8497-3.07l4.6297-.216v2.124c0 2.406-2.0742 4.215-4.7956 4.215z" fill="#fff"/><circle cx="119.414" cy="198.88" fill="#fff" r="7.552"/><circle cx="119.414" cy="198.88" r="7.316" stroke="#000" stroke-opacity=".3" stroke-width=".472"/><circle cx="119.414" cy="221.536" fill="#000" r="7.552"/><circle cx="119.414" cy="221.536" r="7.316" stroke="#000" stroke-opacity=".3" stroke-width=".472"/><rect fill="#b5afd0" height="71.208" rx=".944" width="183.5" x="200" y="174.604"/><path d="m277.629 218.477-7.201-19.73h-2.373l-7.136 19.348c-.343.962-.658 1.687-.946 2.174-.276.486-.608.829-.995 1.029-.387.199-.924.342-1.61.431v.979h7.202v-.979c-.852-.111-1.471-.271-1.859-.481-.376-.21-.564-.553-.564-1.029.011-.476.172-1.156.481-2.041l5.709-16.577h-.432l5.924 16.859c.288.797.421 1.416.398 1.859-.011.431-.204.752-.58.962-.376.199-.979.348-1.809.448v.979h9.16v-.979c-.642-.089-1.156-.221-1.543-.398-.377-.188-.697-.498-.963-.93-.265-.442-.553-1.084-.863-1.924zm-14.337-4.182h10.67l-.465-1.261h-9.74zm23.879 8.745c1.216 0 2.295-.238 3.235-.714.952-.475 1.649-1.045 2.091-1.709.111.509.31.935.598 1.278.298.343.663.608 1.095.796.431.177.923.266 1.477.266.575 0 1.089-.078 1.543-.232.453-.155.813-.327 1.078-.515v-.896c-.232.1-.525.149-.879.149-.498 0-.924-.154-1.278-.464-.343-.31-.514-.835-.514-1.577v-8.346c0-1.748-.559-3.031-1.676-3.85-1.106-.83-2.583-1.244-4.431-1.244-1.228 0-2.345.16-3.352.481-.995.321-1.792.763-2.389 1.327s-.896 1.217-.896 1.958c0 .52.177.952.531 1.295.365.331.796.497 1.294.497.52 0 .957-.166 1.311-.497.354-.332.531-.742.531-1.228 0-.487-.166-.902-.498-1.245s-.724-.514-1.178-.514c-.42 0-.791.193-1.112.581-.321.376-.486.84-.498 1.393h.664c.133-.564.41-1.039.83-1.427.42-.398.94-.697 1.56-.896.619-.21 1.3-.315 2.041-.315 1.206 0 2.185.304 2.937.913.752.608 1.128 1.67 1.128 3.186v8.114c-.365.542-.857.968-1.477 1.278-.608.298-1.299.448-2.074.448-.918 0-1.681-.26-2.29-.78-.597-.531-.896-1.267-.896-2.207 0-.929.332-1.682.996-2.257.675-.586 1.842-1.067 3.501-1.444l3.535-.763v-1.195l-5.012 1.096c-1.493.32-2.71.713-3.65 1.178-.93.464-1.61 1.023-2.041 1.676-.432.641-.648 1.399-.648 2.273 0 1.217.46 2.213 1.378 2.987.918.763 2.063 1.145 3.435 1.145z" fill="#000"/><circle cx="318.414" cy="198.88" fill="#fff" r="7.552"/><circle cx="318.414" cy="198.88" r="7.316" stroke="#000" stroke-opacity=".3" stroke-width=".472"/><circle cx="318.414" cy="221.536" fill="#7e62ff" r="7.552"/><circle cx="318.414" cy="221.536" r="7.316" stroke="#000" stroke-opacity=".3" stroke-width=".472"/></svg>

<svg width="318" height="246" viewBox="0 0 318 246" fill="none" xmlns="http://www.w3.org/2000/svg">
<rect x="0.5" y="0.187988" width="183.5" height="71.208" rx="0.944" fill="white"/>
<path d="M59.1791 48.292H62.3154L64.7215 41.4388H74.2463L76.6524 48.292H79.7886L70.9607 24.3472H68.007L59.1791 48.292ZM69.3511 28.2136H69.6166L73.3668 38.8999H65.6009L69.3511 28.2136ZM88.3676 48.6073C90.7736 48.6073 92.6487 47.5619 93.7771 45.6536H94.0426V48.292H96.9299V36.0458C96.9299 32.3288 94.4906 30.0886 90.1265 30.0886C86.3099 30.0886 83.5886 31.9803 83.1239 34.7847L83.1073 34.8842H85.9946L86.0112 34.8345C86.4759 33.4406 87.8863 32.6441 90.0269 32.6441C92.6985 32.6441 94.0426 33.8388 94.0426 36.0458V37.672L88.9151 37.9873C84.7501 38.2362 82.3938 40.0781 82.3938 43.2641V43.2973C82.3938 46.5496 84.9658 48.6073 88.3676 48.6073ZM85.3475 43.2309V43.1977C85.3475 41.4222 86.5422 40.4597 89.2636 40.2938L94.0426 39.9951V41.6213C94.0426 44.1767 91.902 46.1016 88.9649 46.1016C86.8907 46.1016 85.3475 45.0396 85.3475 43.2309Z" fill="#1E1E1E"/>
<circle cx="118.914" cy="24.464" r="7.552" fill="#264447"/>
<circle cx="118.914" cy="24.464" r="7.316" stroke="black" stroke-opacity="0.3" stroke-width="0.472"/>
<circle cx="118.914" cy="47.12" r="7.552" fill="#FAE3CA"/>
<circle cx="118.914" cy="47.12" r="7.316" stroke="black" stroke-opacity="0.3" stroke-width="0.472"/>
<rect x="200" y="0.187988" width="183.5" height="71.208" rx="0.944" fill="#FAE3CA"/>
<path d="M258.679 48.292H261.815L264.221 41.4388H273.746L276.152 48.292H279.289L270.461 24.3472H267.507L258.679 48.292ZM268.851 28.2136H269.117L272.867 38.8999H265.101L268.851 28.2136ZM287.868 48.6073C290.274 48.6073 292.149 47.5619 293.277 45.6536H293.543V48.292H296.43V36.0458C296.43 32.3288 293.991 30.0886 289.626 30.0886C285.81 30.0886 283.089 31.9803 282.624 34.7847L282.607 34.8842H285.495L285.511 34.8345C285.976 33.4406 287.386 32.6441 289.527 32.6441C292.199 32.6441 293.543 33.8388 293.543 36.0458V37.672L288.415 37.9873C284.25 38.2362 281.894 40.0781 281.894 43.2641V43.2973C281.894 46.5496 284.466 48.6073 287.868 48.6073ZM284.847 43.2309V43.1977C284.847 41.4222 286.042 40.4597 288.764 40.2938L293.543 39.9951V41.6213C293.543 44.1767 291.402 46.1016 288.465 46.1016C286.391 46.1016 284.847 45.0396 284.847 43.2309Z" fill="#1E1E1E"/>
<circle cx="318.414" cy="24.464" r="7.552" fill="#264447"/>
<circle cx="318.414" cy="24.464" r="7.316" stroke="black" stroke-opacity="0.3" stroke-width="0.472"/>
<circle cx="318.414" cy="47.12" r="7.552" fill="#FFC78A"/>
<circle cx="318.414" cy="47.12" r="7.316" stroke="black" stroke-opacity="0.3" stroke-width="0.472"/>
<rect x="0.5" y="87.396" width="183.5" height="71.208" rx="0.944" fill="black"/>
<path d="M82.6139 134.5H72.807V133.322C73.6699 133.267 74.3834 133.156 74.9476 132.99C75.5228 132.824 75.8105 132.619 75.8105 132.376C75.8105 132.276 75.7994 132.155 75.7773 132.011C75.7551 131.867 75.722 131.74 75.6777 131.629L73.7196 126.352H65.4726C65.1628 127.127 64.9084 127.802 64.7092 128.377C64.5212 128.952 64.3497 129.483 64.1948 129.97C64.051 130.446 63.9515 130.833 63.8961 131.131C63.8408 131.43 63.8132 131.674 63.8132 131.862C63.8132 132.304 64.1616 132.647 64.8586 132.89C65.5555 133.134 66.341 133.278 67.2149 133.322V134.5H58.3538V133.322C58.6415 133.3 59.001 133.239 59.4324 133.139C59.8639 133.029 60.2179 132.885 60.4944 132.708C60.9369 132.409 61.2799 132.099 61.5232 131.779C61.7666 131.447 62.0045 130.993 62.2368 130.418C63.4205 127.464 64.7258 124.145 66.1529 120.462C67.58 116.778 68.8521 113.498 69.9695 110.622H71.297L79.1458 130.932C79.3117 131.364 79.4998 131.712 79.71 131.978C79.9202 132.243 80.2133 132.503 80.5895 132.758C80.8439 132.913 81.1758 133.045 81.5851 133.156C81.9944 133.255 82.3373 133.311 82.6139 133.322V134.5ZM73.1223 124.876L69.5546 115.749L66.0533 124.876H73.1223ZM98.5273 134.201C98.0074 134.389 97.5483 134.539 97.15 134.649C96.7628 134.771 96.3203 134.832 95.8225 134.832C94.9597 134.832 94.2682 134.633 93.7483 134.234C93.2394 133.825 92.9131 133.233 92.7693 132.459H92.6697C91.9507 133.255 91.1763 133.864 90.3466 134.284C89.528 134.705 88.5379 134.915 87.3763 134.915C86.1484 134.915 85.1362 134.539 84.3397 133.786C83.5542 133.034 83.1615 132.05 83.1615 130.833C83.1615 130.202 83.25 129.638 83.427 129.14C83.604 128.642 83.8695 128.194 84.2235 127.796C84.5001 127.464 84.8651 127.171 85.3187 126.917C85.7722 126.651 86.1982 126.441 86.5964 126.286C87.0942 126.098 88.1009 125.75 89.6165 125.241C91.1431 124.732 92.1719 124.334 92.7029 124.046V122.403C92.7029 122.259 92.6697 121.983 92.6033 121.573C92.548 121.164 92.4208 120.777 92.2217 120.412C92.0004 120.003 91.6852 119.649 91.2758 119.35C90.8776 119.04 90.3079 118.885 89.5667 118.885C89.0578 118.885 88.5821 118.974 88.1396 119.151C87.7082 119.317 87.404 119.494 87.227 119.682C87.227 119.903 87.2767 120.229 87.3763 120.661C87.4869 121.092 87.5422 121.49 87.5422 121.856C87.5422 122.243 87.3652 122.597 87.0112 122.918C86.6683 123.238 86.1871 123.399 85.5676 123.399C85.0145 123.399 84.6052 123.205 84.3397 122.818C84.0852 122.42 83.958 121.977 83.958 121.49C83.958 120.982 84.135 120.495 84.489 120.03C84.8541 119.566 85.3242 119.151 85.8995 118.786C86.3973 118.476 87.0002 118.216 87.7082 118.006C88.4162 117.785 89.1076 117.674 89.7824 117.674C90.7117 117.674 91.5192 117.74 92.2051 117.873C92.902 117.995 93.5326 118.266 94.0968 118.686C94.661 119.095 95.0869 119.654 95.3745 120.362C95.6732 121.059 95.8225 121.961 95.8225 123.067C95.8225 124.649 95.8059 126.054 95.7727 127.282C95.7396 128.499 95.723 129.832 95.723 131.281C95.723 131.712 95.7949 132.055 95.9387 132.31C96.0936 132.564 96.3259 132.78 96.6356 132.957C96.8016 133.056 97.0615 133.112 97.4155 133.123C97.7806 133.134 98.1512 133.139 98.5273 133.139V134.201ZM92.7361 125.44C91.7958 125.716 90.9716 125.987 90.2636 126.253C89.5556 126.518 88.8974 126.85 88.289 127.249C87.7358 127.625 87.2989 128.073 86.9781 128.593C86.6572 129.101 86.4968 129.71 86.4968 130.418C86.4968 131.336 86.7347 132.011 87.2104 132.442C87.6971 132.874 88.3111 133.09 89.0523 133.09C89.8377 133.09 90.5291 132.901 91.1265 132.525C91.7239 132.138 92.2272 131.685 92.6365 131.165L92.7361 125.44Z" fill="white"/>
<circle cx="117.914" cy="111.672" r="7.552" fill="white"/>
<circle cx="117.914" cy="111.672" r="7.316" stroke="black" stroke-opacity="0.3" stroke-width="0.472"/>
<circle cx="117.914" cy="134.328" r="7.552" fill="#68E58B"/>
<circle cx="117.914" cy="134.328" r="7.316" stroke="black" stroke-opacity="0.3" stroke-width="0.472"/>
<rect x="200" y="87.396" width="183.5" height="71.208" rx="0.944" fill="#424CBF"/>
<path d="M258.679 135.5H261.815L264.221 128.647H273.746L276.152 135.5H279.289L270.461 111.555H267.507L258.679 135.5ZM268.851 115.422H269.117L272.867 126.108H265.101L268.851 115.422ZM287.868 135.815C290.274 135.815 292.149 134.77 293.277 132.862H293.543V135.5H296.43V123.254C296.43 119.537 293.991 117.297 289.626 117.297C285.81 117.297 283.089 119.188 282.624 121.993L282.607 122.092H285.495L285.511 122.042C285.976 120.649 287.386 119.852 289.527 119.852C292.199 119.852 293.543 121.047 293.543 123.254V124.88L288.415 125.195C284.25 125.444 281.894 127.286 281.894 130.472V130.505C281.894 133.758 284.466 135.815 287.868 135.815ZM284.847 130.439V130.406C284.847 128.63 286.042 127.668 288.764 127.502L293.543 127.203V128.829C293.543 131.385 291.402 133.31 288.465 133.31C286.391 133.31 284.847 132.248 284.847 130.439Z" fill="white"/>
<circle cx="318.414" cy="111.672" r="7.552" fill="white"/>
<circle cx="318.414" cy="111.672" r="7.316" stroke="black" stroke-opacity="0.3" stroke-width="0.472"/>
<circle cx="318.414" cy="134.328" r="7.552" fill="#1DE7F4"/>
<circle cx="318.414" cy="134.328" r="7.316" stroke="black" stroke-opacity="0.3" stroke-width="0.472"/>
<rect x="0.5" y="174.604" width="183.5" height="71.208" rx="0.944" fill="#64589E"/>
<path d="M74.2275 222.708H77.3139L69.5978 198.763H66.4782L58.7621 222.708H61.7324L63.8232 215.838H72.1533L74.2275 222.708ZM67.9551 202.281H68.038L71.39 213.333H64.5865L67.9551 202.281ZM87.2204 223.023C89.8422 223.023 91.8003 221.945 92.6631 220.02H92.9452V222.725H95.6334V210.395C95.6334 206.645 93.2107 204.488 88.9793 204.488C85.2955 204.488 82.5078 206.463 82.1759 209.35H84.9471C85.4117 207.807 86.8719 206.927 88.9461 206.927C91.4518 206.927 92.8291 208.172 92.8291 210.429V212.055L87.8841 212.304C83.7855 212.519 81.4956 214.411 81.4956 217.597C81.4956 220.866 83.7855 223.023 87.2204 223.023ZM88.0335 220.551C85.7601 220.551 84.3497 219.389 84.3497 217.498C84.3497 215.622 85.6772 214.544 88.1994 214.428L92.8291 214.212V216.336C92.8291 218.742 90.7549 220.551 88.0335 220.551Z" fill="white"/>
<circle cx="119.414" cy="198.88" r="7.552" fill="white"/>
<circle cx="119.414" cy="198.88" r="7.316" stroke="black" stroke-opacity="0.3" stroke-width="0.472"/>
<circle cx="119.414" cy="221.536" r="7.552" fill="black"/>
<circle cx="119.414" cy="221.536" r="7.316" stroke="black" stroke-opacity="0.3" stroke-width="0.472"/>
<rect x="200" y="174.604" width="183.5" height="71.208" rx="0.944" fill="#B5AFD0"/>
<path d="M277.629 218.477L270.428 198.747H268.055L260.919 218.095C260.576 219.057 260.261 219.782 259.973 220.269C259.697 220.755 259.365 221.098 258.978 221.298C258.591 221.497 258.054 221.64 257.368 221.729V222.708H264.57V221.729C263.718 221.618 263.099 221.458 262.711 221.248C262.335 221.038 262.147 220.695 262.147 220.219C262.158 219.743 262.319 219.063 262.628 218.178L268.337 201.601H267.905L273.829 218.46C274.117 219.257 274.25 219.876 274.227 220.319C274.216 220.75 274.023 221.071 273.647 221.281C273.271 221.48 272.668 221.629 271.838 221.729V222.708H280.998V221.729C280.356 221.64 279.842 221.508 279.455 221.331C279.078 221.143 278.758 220.833 278.492 220.401C278.227 219.959 277.939 219.317 277.629 218.477ZM263.292 214.295H273.962L273.497 213.034H263.757L263.292 214.295ZM287.171 223.04C288.387 223.04 289.466 222.802 290.406 222.326C291.358 221.851 292.055 221.281 292.497 220.617C292.608 221.126 292.807 221.552 293.095 221.895C293.393 222.238 293.758 222.503 294.19 222.691C294.621 222.868 295.113 222.957 295.667 222.957C296.242 222.957 296.756 222.879 297.21 222.725C297.663 222.57 298.023 222.398 298.288 222.21V221.314C298.056 221.414 297.763 221.463 297.409 221.463C296.911 221.463 296.485 221.309 296.131 220.999C295.788 220.689 295.617 220.164 295.617 219.422V211.076C295.617 209.328 295.058 208.045 293.941 207.226C292.835 206.396 291.358 205.982 289.51 205.982C288.282 205.982 287.165 206.142 286.158 206.463C285.163 206.784 284.366 207.226 283.769 207.79C283.172 208.354 282.873 209.007 282.873 209.748C282.873 210.268 283.05 210.7 283.404 211.043C283.769 211.374 284.2 211.54 284.698 211.54C285.218 211.54 285.655 211.374 286.009 211.043C286.363 210.711 286.54 210.301 286.54 209.815C286.54 209.328 286.374 208.913 286.042 208.57C285.71 208.227 285.318 208.056 284.864 208.056C284.444 208.056 284.073 208.249 283.752 208.637C283.431 209.013 283.266 209.477 283.254 210.03H283.918C284.051 209.466 284.328 208.991 284.748 208.603C285.168 208.205 285.688 207.906 286.308 207.707C286.927 207.497 287.608 207.392 288.349 207.392C289.555 207.392 290.534 207.696 291.286 208.305C292.038 208.913 292.414 209.975 292.414 211.491V219.605C292.049 220.147 291.557 220.573 290.937 220.883C290.329 221.181 289.638 221.331 288.863 221.331C287.945 221.331 287.182 221.071 286.573 220.551C285.976 220.02 285.677 219.284 285.677 218.344C285.677 217.415 286.009 216.662 286.673 216.087C287.348 215.501 288.515 215.02 290.174 214.643L293.709 213.88V212.685L288.697 213.781C287.204 214.101 285.987 214.494 285.047 214.959C284.117 215.423 283.437 215.982 283.006 216.635C282.574 217.276 282.358 218.034 282.358 218.908C282.358 220.125 282.818 221.121 283.736 221.895C284.654 222.658 285.799 223.04 287.171 223.04Z" fill="black"/>
<circle cx="318.414" cy="198.88" r="7.552" fill="white"/>
<circle cx="318.414" cy="198.88" r="7.316" stroke="black" stroke-opacity="0.3" stroke-width="0.472"/>
<circle cx="318.414" cy="221.536" r="7.552" fill="#7E62FF"/>
<circle cx="318.414" cy="221.536" r="7.316" stroke="black" stroke-opacity="0.3" stroke-width="0.472"/>
</svg>
